diving-helmet.svg

<svg fill="currentColor" viewBox="0 0 24 24"><path d="M16 12a4 4 0 0 1-4 4 4 4 0 0 1-4-4 4 4 0 0 1 4-4 4 4 0 0 1 4 4m3.45-4.11-1.38.69.25.42H20v6h-1.67a7.06 7.06 0 0 1-2.12 2.6c1.64.51 2.89 1.31 3.46 2.26C18.69 21.1 15.62 22 12 22s-6.69-.9-7.67-2.14c.57-.95 1.82-1.75 3.46-2.26-.9-.68-1.63-1.57-2.12-2.6H4V9h1.68A6.95 6.95 0 0 1 9 5.68V4h6v1.68c.68.32 1.29.78 1.82 1.32l1.73-.86C19.93 5.42 20 4.1 20 2h2c0 2.06 0 4.62-2.55 5.89M17 12a5 5 0 0 0-5-5 5 5 0 0 0-5 5 5 5 0 0 0 5 5 5 5 0 0 0 5-5"/></svg>

<svg  viewBox="0 0 24 24" fill="currentColor"><path  d="M16,12A4,4 0 0,1 12,16A4,4 0 0,1 8,12A4,4 0 0,1 12,8A4,4 0 0,1 16,12M19.45,7.89L18.07,8.58L18.32,9H20V15H18.33C17.84,16.03 17.11,16.92 16.21,17.6C17.85,18.11 19.1,18.91 19.67,19.86C18.69,21.1 15.62,22 12,22C8.38,22 5.31,21.1 4.33,19.86C4.9,18.91 6.15,18.11 7.79,17.6C6.89,16.92 6.16,16.03 5.67,15H4V9H5.68C6.37,7.54 7.54,6.37 9,5.68V4H15V5.68C15.68,6 16.29,6.46 16.82,7L18.55,6.14C19.93,5.42 20,4.1 20,2H22C22,4.06 22,6.62 19.45,7.89M17,12A5,5 0 0,0 12,7A5,5 0 0,0 7,12A5,5 0 0,0 12,17A5,5 0 0,0 17,12Z"/></svg>
